X:5909053
T:Quatri\`eme partie: Petit tour des dames
S:Jean Marie & Lise Verret, $2La famille Verret Vol. 2.$0 Philo Forerunner Series 42016.
H:Please note that the chords are my approximation to what Lise Verret plays,
H:but shouldn't be considered any more than that.
N:From NH Country Dance (URL below), along with many New England, Canadian & Swedish
N:tunes, and resources for abc notation and New England traditional music and dance.
%
N: Note #1: To preserve formatting (font, spacing, etc.), use the
N: file header at the URL below; just follow accompanying instructions.
%
N: Note #2: This abc code is optimized for use with abcm2ps, which is used by
N: EasyABC and other abc apps. To use abc2svg for display or printing look to see if there
N: is a file optimized for abc2svg. If not you may need to adjust the spacing in places.
%
Z:abc-transcription Peter Yarensky. I rely heavily on careful listening to the
Z:named sources aided by software to hear details. While not perfect, known
Z:substantial differences from other written sources receive careful attention.
Z:abc-copyright Peter Yarensky. You may reproduce this tune freely but
Z:please include the entire abc file including all the notes.
%%writefields HQSD
F:Tunes Home Page - https://fiddle-tunes.nhcountrydance.com/
F:abc Header & its Usage - https://fiddle-tunes.nhcountrydance.com/header-page/
M:4/4
L:1/8
R:Reel
G:Reels ~ Canadian ~ Quebec
N: Tune Tags ~ Reel, Canadian, Quebec
K:D
"D" DEFG (3ABA FA | "D" d2F2 "D#Â°" AAFA | "Em" f2ed "A" c2ec | "Em" BABc "A" yTB2>A2 |
"D" DEFG (3AAA FA | "D" d2F2 "D#Â°" AAFA | "Em" f2ed "A" c2ec |1 "A7" BABc "D" d2(3DDD :|2 "A7" BABc "D" d3 ||
B |:\
"D" ABde "D#Â°" ffe^d | "Em" e2"B7" f2 "Em" g4 | "Em" BABc "B7" B2>A2 | "Em" FGAB "A7" ((3ABA) FA |
"D" ABde "D#Â°" ffe^d | "Em" e2"B7" f2 "Em" g4 | "Em" BABd "B7" c2"Em" BA |1 BA"A7"Bc "D" dBAG :|2 BA"A7"Bc "D"dBAF |]

